packages/kaspersky-hexa-ui-icons/src/iconsSVGs/24/ArrowUpMini.svg

<svg width="24" height="24" viewBox="0 0 24 24" fill="none" xmlns="http://www.w3.org/2000/svg">
<path fill-rule="evenodd" clip-rule="evenodd" d="M8.07261 14.3313C8.46868 14.7162 9.10178 14.7071 9.48668 14.311L11.9965 11.7283L14.5139 14.312C14.8994 14.7076 15.5325 14.7158 15.928 14.3304C16.3236 13.9449 16.3318 13.3118 15.9464 12.9163L12.7118 9.59657C12.5234 9.40322 12.2649 9.29426 11.9949 9.29443C11.725 9.29461 11.4666 9.40392 11.2784 9.59751L8.05238 12.9172C7.66748 13.3133 7.67654 13.9464 8.07261 14.3313Z" fill="black"/>
</svg>

<svg xmlns="http://www.w3.org/2000/svg" width="24" height="24" fill="none" viewBox="0 0 24 24"><path fill="#000" fill-rule="evenodd" d="M8.0726 14.3313c.396.3849 1.0292.3758 1.414-.0203l2.5099-2.5827 2.5174 2.5837c.3855.3956 1.0186.4038 1.4141.0184.3956-.3855.4038-1.0186.0184-1.4141l-3.2346-3.3197a1 1 0 0 0-1.4334.001l-3.226 3.3196c-.385.3961-.3759 1.0292.0202 1.4141"/></svg>
